packages/match-logos/mono/svg/remind.svg

<svg fill="none" height="32" viewBox="0 0 172 32" width="172" xmlns="http://www.w3.org/2000/svg" xmlns:xlink="http://www.w3.org/1999/xlink"><clipPath id="a"><path d="m0 0h172v32h-172z"/></clipPath><g clip-path="url(#a)"><path d="m56.24 9.76-.48 2c-.08.4-.32.56-.8.48-.8-.24-1.6-.32-2.24-.32-1.2 0-4.08.4-4.08 3.92v11.68c0 .4-.32.64-.8.64h-2.32c-.4 0-.48-.16-.48-.64v-11.52c0-4.72 2.72-7.6 7.36-7.6 1.12 0 2.24.16 3.28.4.24.16.72.32.56.96zm19.2 1.04c1.92 1.84 2.96 4.4 2.96 7.6v.4c-.16.32-.4.4-.8.4h-15.76c.32 3.84 2.64 6.08 6.4 6.08 1.76 0 3.44-.56 4.56-1.6.32-.32.64-.32 1.04-.16l2 1.04c.16.08.32.24.32.48 0 .16 0 .32-.16.48-1.92 2.24-4.56 3.28-7.76 3.28-6.16 0-10.08-4.08-10.08-10.32s4-10.32 10.08-10.32c2.88.08 5.36.96 7.2 2.64zm-1.2 5.28c-.8-3.12-2.96-4.32-6.08-4.32s-5.28 1.52-6.08 4.32v.08h12.16zm47.84-7.12h-2.64c-.4 0-.72.32-.72.72v17.84c0 .4.32.72.72.72h2.64c.4 0 .72-.32.72-.72v-17.84c0-.4-.32-.72-.72-.72zm49.44-8.08v17.2c0 6.16-4 10.32-10 10.32-5.84 0-10-4.32-10-10.32 0-6.24 3.76-10.32 9.68-10.32h.32c2.64.08 5.04.72 6.56 2.4v-9.28c0-.4.32-.88.72-.88h2.32c.24 0 .4.48.4.88zm-3.52 17.2c-.16-4.4-2.4-6.8-6.4-6.8-4.08 0-6.4 2.48-6.4 6.8 0 4.24 2.4 6.8 6.4 6.8s6.4-2.56 6.4-6.8zm-63.68-9.84c-2.96 0-5.36 1.12-6.72 3.2-1.52-2.08-3.92-3.2-6.8-3.2-5.36 0-8.64 3.36-8.64 8.96v10.4c0 .4.4.64.88.64h2.32c.4 0 .88-.16.88-.64v-10.4c0-4.48 2.72-5.44 4.88-5.44 1.68 0 4.48 1.76 4.48 3.84v12c0 .4.32.64.72.64h2.64c.4 0 .72-.24.72-.64v-12c0-2.16 2.16-3.76 4.48-3.76 2.24 0 4.88.96 4.88 5.44v10.4c0 .4.56.64.96.64h2.32c.4 0 .8-.16.8-.64v-10.4c-.16-5.76-3.44-9.04-8.8-9.04zm33.44 0c-5.84 0-9.6 3.76-9.6 9.76v9.6c0 .4.48.64.96.64h2.32c.4 0 .8-.16.8-.64v-9.6c0-5.44 4-5.68 5.6-5.76 1.52.08 5.6.32 5.6 5.76v9.6c0 .4.32.64.8.64h2.32c.4 0 .96-.16.96-.64v-9.6c-.16-6.08-3.92-9.76-9.76-9.76zm-107.28-1.2c-2.24-2.88-6.48-4.8-11.36-4.8-6 0-11.04 2.88-12.56 6.88-3.84 1.36-6.56 4.96-6.56 9.28 0 5.44 4.4 9.84 9.84 9.84 1.92 0 3.68-.56 5.2-1.52l.48 4.32c.08.96 1.36 1.36 2 .56l4.24-5.68c.32.08.64.08.96.08 2.72 0 4.96-1.68 5.92-4.08 4.64-.24 8.32-3.52 8.32-7.6 0-3.44-2.8-6.4-6.48-7.28z" fill="#1f304c"/></g></svg>

<svg width="172" height="32" viewBox="0 0 172 32" fill="none" xmlns="http://www.w3.org/2000/svg">
<g clip-path="url(#clip0)">
<path d="M56.24 9.76L55.76 11.76C55.68 12.16 55.44 12.32 54.96 12.24C54.16 12 53.36 11.92 52.72 11.92C51.52 11.92 48.64 12.32 48.64 15.84V27.52C48.64 27.92 48.32 28.16 47.84 28.16H45.52C45.12 28.16 45.04 28 45.04 27.52V16C45.04 11.28 47.76 8.4 52.4 8.4C53.52 8.4 54.64 8.56 55.68 8.8C55.92 8.96 56.4 9.12 56.24 9.76ZM75.44 10.8C77.36 12.64 78.4 15.2 78.4 18.4V18.8C78.24 19.12 78 19.2 77.6 19.2H61.84C62.16 23.04 64.48 25.28 68.24 25.28C70 25.28 71.68 24.72 72.8 23.68C73.12 23.36 73.44 23.36 73.84 23.52L75.84 24.56C76 24.64 76.16 24.8 76.16 25.04C76.16 25.2 76.16 25.36 76 25.52C74.08 27.76 71.44 28.8 68.24 28.8C62.08 28.8 58.16 24.72 58.16 18.48C58.16 12.24 62.16 8.16 68.24 8.16C71.12 8.24 73.6 9.12 75.44 10.8ZM74.24 16.08C73.44 12.96 71.28 11.76 68.16 11.76C65.04 11.76 62.88 13.28 62.08 16.08V16.16H74.24V16.08ZM122.08 8.96H119.44C119.04 8.96 118.72 9.28 118.72 9.68V27.52C118.72 27.92 119.04 28.24 119.44 28.24H122.08C122.48 28.24 122.8 27.92 122.8 27.52V9.68C122.8 9.28 122.48 8.96 122.08 8.96ZM171.52 0.88V18.08C171.52 24.24 167.52 28.4 161.52 28.4C155.68 28.4 151.52 24.08 151.52 18.08C151.52 11.84 155.28 7.76 161.2 7.76H161.52C164.16 7.84 166.56 8.48 168.08 10.16V0.88C168.08 0.48 168.4 0 168.8 0H171.12C171.36 0 171.52 0.48 171.52 0.88ZM168 18.08C167.84 13.68 165.6 11.28 161.6 11.28C157.52 11.28 155.2 13.76 155.2 18.08C155.2 22.32 157.6 24.88 161.6 24.88C165.6 24.88 168 22.32 168 18.08ZM104.32 8.24C101.36 8.24 98.96 9.36 97.6 11.44C96.08 9.36 93.68 8.24 90.8 8.24C85.44 8.24 82.16 11.6 82.16 17.2V27.6C82.16 28 82.56 28.24 83.04 28.24H85.36C85.76 28.24 86.24 28.08 86.24 27.6V17.2C86.24 12.72 88.96 11.76 91.12 11.76C92.8 11.76 95.6 13.52 95.6 15.6V27.6C95.6 28 95.92 28.24 96.32 28.24H98.96C99.36 28.24 99.68 28 99.68 27.6V15.6C99.68 13.44 101.84 11.84 104.16 11.84C106.4 11.84 109.04 12.8 109.04 17.28V27.68C109.04 28.08 109.6 28.32 110 28.32H112.32C112.72 28.32 113.12 28.16 113.12 27.68V17.28C112.96 11.52 109.68 8.24 104.32 8.24ZM137.76 8.24C131.92 8.24 128.16 12 128.16 18V27.6C128.16 28 128.64 28.24 129.12 28.24H131.44C131.84 28.24 132.24 28.08 132.24 27.6V18C132.24 12.56 136.24 12.32 137.84 12.24C139.36 12.32 143.44 12.56 143.44 18V27.6C143.44 28 143.76 28.24 144.24 28.24H146.56C146.96 28.24 147.52 28.08 147.52 27.6V18C147.36 11.92 143.6 8.24 137.76 8.24ZM30.48 7.04C28.24 4.16 24 2.24 19.12 2.24C13.12 2.24 8.08 5.12 6.56 9.12C2.72 10.48 0 14.08 0 18.4C0 23.84 4.4 28.24 9.84 28.24C11.76 28.24 13.52 27.68 15.04 26.72L15.52 31.04C15.6 32 16.88 32.4 17.52 31.6L21.76 25.92C22.08 26 22.4 26 22.72 26C25.44 26 27.68 24.32 28.64 21.92C33.28 21.68 36.96 18.4 36.96 14.32C36.96 10.88 34.16 7.92 30.48 7.04Z" fill="#1F304C"/>
</g>
<defs>
<clipPath id="clip0">
<rect width="172" height="32" fill="white"/>
</clipPath>
</defs>
</svg>
